svgs/thin/maximize.svg

<svg xmlns="http://www.w3.org/2000/svg" viewBox="0 0 448 512"><!--! Font Awesome Pro 6.3.0 by @fontawesome - https://fontawesome.com License - https://fontawesome.com/license (Commercial License) Copyright 2023 Fonticons, Inc. --><path d="M354.9 136.4l47.61 47.57c17.89 17.87 45.5 3.271 45.5-18.83v-113.2c0-11.03-8.949-19.97-19.99-19.97h-113.3c-22.59 0-36.25 28.07-18.85 45.46l47.69 47.65L224 244.7L104.4 125.1L151.1 77.5C169.9 59.61 155.3 32 133.2 32h-113.2C8.942 32-.001 40.95-.001 51.99v113.3c0 22.59 28.07 36.25 45.46 18.85l47.65-47.68L212.7 256l-119.6 119.6l-47.61-47.57c-17.89-17.87-45.5-3.269-45.5 18.83v113.2c0 11.03 8.949 19.98 19.99 19.98h113.3c22.59 0 36.25-28.08 18.85-45.46l-47.69-47.65L224 267.3l119.6 119.6l-47.58 47.61C278.1 452.4 292.7 480 314.8 480h113.2c11.03 0 19.97-8.949 19.97-19.99v-113.3c0-22.58-28.07-36.25-45.46-18.84l-47.65 47.68L235.3 256L354.9 136.4zM314.7 47.98h113.3c2.203 0 3.998 1.791 3.998 3.994v113.2c0 9.002-11.21 14.52-18.2 7.531L307.2 66.17C299.1 58.98 305.9 47.98 314.7 47.98zM34.16 172.8C26.98 179.1 15.98 174.1 15.98 165.3V51.99c0-2.205 1.793-3.998 3.994-3.998h113.2c8.1 0 14.52 11.2 7.529 18.2L34.16 172.8zM133.3 464H19.99c-2.203 0-3.998-1.793-3.998-3.996v-113.2c0-8.1 11.21-14.52 18.2-7.529l106.6 106.5C148 453 142.1 464 133.3 464zM413.8 339.2c7.184-7.195 18.18-1.252 18.18 7.535v113.3c0 2.203-1.793 3.998-3.994 3.998h-113.2c-8.1 0-14.52-11.2-7.529-18.2L413.8 339.2z"/></svg>

<svg xmlns="http://www.w3.org/2000/svg" viewBox="0 0 448 512"><!-- Font Awesome Pro 6.0.0-alpha2 by @fontawesome - https://fontawesome.com License - https://fontawesome.com/license (Commercial License) --><path d="M354.891 136.425L402.5 183.996C420.391 201.867 448 187.267 448 165.166V51.976C448 40.945 439.051 32.002 428.01 32.002H314.731C292.145 32.002 278.481 60.075 295.885 77.466L343.575 125.117L224.001 244.688L104.421 125.111L151.999 77.499C169.868 59.609 155.269 32 133.169 32H19.975C8.943 32 0 40.949 0 51.99V165.266C0 187.851 28.074 201.513 45.465 184.111L93.113 136.427L212.689 256L93.111 375.575L45.5 328.002C27.609 310.131 0 324.733 0 346.832V460.022C0 471.053 8.949 479.998 19.99 479.998H133.269C155.855 479.998 169.519 451.923 152.115 434.534L104.427 386.883L224.001 267.312L343.579 386.887L296.001 434.501C278.132 452.391 292.731 480 314.831 480H428.025C439.057 480 448 471.051 448 460.01V346.732C448 324.149 419.926 310.485 402.535 327.889L354.887 375.571L235.313 256L354.891 136.425ZM314.731 47.982H428.01C430.213 47.982 432.008 49.773 432.008 51.976V165.166C432.008 174.168 420.803 179.686 413.809 172.697L307.194 66.165C299.999 58.982 305.942 47.982 314.731 47.982ZM34.164 172.801C26.98 179.998 15.98 174.055 15.98 165.266V51.99C15.98 49.785 17.773 47.992 19.975 47.992H133.169C142.169 47.992 147.687 59.195 140.699 66.189L34.164 172.801ZM133.269 464.018H19.99C17.787 464.018 15.992 462.225 15.992 460.022V346.832C15.992 337.832 27.197 332.312 34.191 339.303L140.806 445.833C148.001 453.018 142.058 464.018 133.269 464.018ZM413.836 339.197C421.02 332.002 432.02 337.945 432.02 346.732V460.01C432.02 462.213 430.227 464.008 428.025 464.008H314.831C305.831 464.008 300.313 452.803 307.301 445.809L413.836 339.197Z"/></svg>
